X:162
T:Unfortunate Rake
Z: id:dc-jig-139
M:6/8
L:1/8
K:E Dorian
D|EBB BAG|FAA AFD|EBB EBB|AGF E2D|!
EBB BAG|FDF AGF|GAB AdB|AGF E2:|!
A|Bee efg|fdf edA|Bee efg|fdf e2A|!
Bee efg|fdf edB|GAB AdB|AGF E2:|!

